icon/pk/reload.svg

<svg viewBox="0 0 48 48" fill="none" xmlns="http://www.w3.org/2000/svg" height="1em" width="1em">
  <path d="M22 43C17.2742 41.2327 13.3325 35.1851 11.3597 31.6428C10.5079 30.1134 10.9566 28.2347 12.3236 27.1411C13.8473 25.9222 16.0438 26.0438 17.4236 27.4236L19 29V17.5C19 16.1193 20.1193 15 21.5 15C22.8807 15 24 16.1193 24 17.5V23.5C24 22.1193 25.1193 21 26.5 21C27.8807 21 29 22.1193 29 23.5V25.5C29 24.1193 30.1193 23 31.5 23C32.8807 23 34 24.1193 34 25.5V27.5C34 26.1193 35.1193 25 36.5 25C37.8807 25 39 26.1193 39 27.5V35.368C39 36.4383 38.7354 37.496 38.1185 38.3707C37.0949 39.8219 35.255 42.0336 33 43C29.5 44.5 26.3701 44.6343 22 43Z" fill="#2F88FF" stroke="black" stroke-width="4" stroke-linecap="round" stroke-linejoin="round"/>
  <path d="M36 12L32 16L28 12" stroke="black" stroke-width="4" stroke-linecap="round" stroke-linejoin="round"/>
  <path d="M14 13C14 8.02944 18.0294 4 23 4C27.9706 4 32 8.02944 32 13C32 13.5641 31.9481 14.1161 31.8488 14.6514" stroke="black" stroke-width="4" stroke-linecap="round"/>
</svg>

<svg width="48" height="48" fill="none" xmlns="http://www.w3.org/2000/svg"><path d="M22 43c-4.726-1.767-8.668-7.815-10.64-11.357-.852-1.53-.403-3.408.964-4.502a3.83 3.83 0 0 1 5.1.283L19 29V17.5a2.5 2.5 0 0 1 5 0v6a2.5 2.5 0 0 1 5 0v2a2.5 2.5 0 0 1 5 0v2a2.5 2.5 0 0 1 5 0v7.868c0 1.07-.265 2.128-.882 3.003C37.095 39.82 35.255 42.034 33 43c-3.5 1.5-6.63 1.634-11 0Z" fill="#2F88FF" stroke="#000" stroke-width="4" stroke-linecap="round" stroke-linejoin="round"/><path d="m36 12-4 4-4-4" stroke="#000" stroke-width="4" stroke-linecap="round" stroke-linejoin="round"/><path d="M14 13a9 9 0 1 1 17.849 1.651" stroke="#000" stroke-width="4" stroke-linecap="round"/></svg>
